X: 182
T: Madam Frederick's Strathspey
R: strathspey
M: C|
L: 1/8
Z: 2011 John Chambers <jc:trillian.mit.edu>
B: Abraham Mackintosh "A Collection of Strathspeys, Reels, Jigs &c.", Newcastle, after 1797, p.18
F: http://imslp.info/files/imglnks/usimg/a/a8/IMSLP80796-PMLP164326-Abraham_Mackintosh_coll.pdf
K: A
V: 1
A,>B,C>D E>FEC | A,>CE>C A,AA>c | A,>B,C>E E>FEC | B,B/c/ d/c/B/A/ G<BB>c |
A,>B,C>D E>FEC | A,>CE>C A,A2c/d/ | ecAE Fdf>e | dcBA G>BB>c |]
A>Ac>A e>Ac>A | E>Ac>A f/e/d/c/ B>c | A>Ac>A e>Ac>A | F>G F/E/D/C/ B,B2c |
A>Ac>A e>Ac>A | E>Ac>e f/e/d/c/ B>c | A>BA>E F>GF>D | EDCB, A,A2c |]
V: 2 clef=bass middle=d
A2A2 A2A2 | A2A2 c2c2 | A2A2 A2A2 | d2d^d e2E2 |
A2A2 A2A2 | A2A2 A2A2 | c2c2 d2d2 | d2^d2 e2E2 |]
a2a2 a2a2 | a2a2 d2e2 | a2a2 c'2a2 | d2d2 e2E2 |
c2A2 c2A2 | A2A2 d2e2 | c2c2 d2d2 | e2E2 A2A2 |]

%%sep 2 1 500

